!!!COM: Robert Schumann
!!!CNT: Deutsch
!!!TXO: Deutsch
!!!OTL: Blondels Lied
!!!LYR: Seidl
!!!OPR: Ausgewa2hlte Lieder
!!!OPS: Op. 53
!!!ONM: No. 1
!!!ENC: Ben Fuhrman
!!!YOR: Schumann Lieder - Max Friedlaender, ed.,
!!!YOR: New York: C. F. Peters, Vol. 1
!!!ODT: 1840/
!!NB: Vocal melody and text only encoded.
!!NB: First instance of melodic material only encoded.
**kern	**silbe
*clefG2	*
*k[b-]	*
*M4/4	*
!!created: 5/26/06 9:36
!!proofed and posted:5/26/06 9:36
!!edit time: 76 minutes
=5	=5
{4f	{Spa2-
4e	-hend
4.a	nach
8g	dem
=6	=6
4b-	Ei-
4a	-sen-
(4dd	-git-
8cc)	|
8a	-ter
=7	=7
4f	bei
4g	des
4.a	Mon-
8a	-des
=8	=8
4f	hel-
4g	-lem
2a}	Schein,}
=9	=9
{4f	{steht
4e	ein
4.a	Min-
8g	-st'rel
=10	=10
4b-	mit
4a	der
(4dd	Zi-
8cc)	|
8a	-ther
=11	=11
4f	vor
4g	dem
4.g	Schlos-
8g	-se
=12	=12
4f	Du2r-
4g	-ren-
2g}	-stein,}
=13	=13
{4c	{stimmt
4c	sein
4.g	Spiel
8g	zu
=14	=14
4e	sanf-
4e	-ter
4.b-	Wei-
8b-	-se
=15	=15
4g	und
4b-	be-
4.dd	-grinnt
8cc	sein
=16	=16
4b-	Lied
4a	da-
2b-}	zu,}
=17	=17
{4c	{denn
4c	ein
4.f	Ah-
8f	-nen
=18	=18
4c	sagt
4c	ihm
4.f	lei-
8f	-se:
=19	=19
4d	"Su-
4d	-che
4.f	treu,
8f	so
=20	=20
4.g	fin-
8g	-dest
2a}	du!"}
!! rest to measure 25
=25	=25
{4c	{Ko2-
4c	-nig
4.f	Ri-
8f	-chard
=26	=26
4c	Held
4c	von
4.f	O-
8f	-sten,
=27	=27
4d	sankst
4d	du
4.f	wirk-
8f	-lich
=28	=28
4g	schon
4g	hin-
(qg	|
2a)}	ab?}
=29	=29
{4c	{Muss
4c	dein
4.f	Schwert
8f	im
=30	=30
4c	Mee-
4c	-re
4.f	ro-
8f	-sten
=31	=31
4d	o-
4d	-der
4.f	deckt
8f	dich
=32	=32
4g	fern
4g	ein
(qg	|
2a)}	Grab?}
=33	=33
{4a	{Such-
4a	-end
4.a	dich
8a	auf
=34	=34
4a	al-
4a	-len
4.a	We-
8a	-gen,
=35	=35
4g	wallt
4g	dein
(4g	Minst'
8c)	|
8g	-rel
=36	=36
4.f	oh-
8f	-ne
(qe	|
2g)}	Ruh',}
=37	=37
{4c	{denn
4c	ihm
4.f	sagt
8f	ein
=38	=38
4c	lei-
4c	-ses
4.f	Re-
8f	-gen:
=39	=39
4d	"Su-
4d	-che
4.f	treu,
8f	so
=40	=40
4.g	fin-
8g	-dest
2a}	du!"}
!! rest to measure 45
=45	=45
{(4f	{Hof-
8g)	|
8a	-fe,
4.b-	Ri-
8b-	-chard,
=46	=46
(4f	und
8g)	|
8a	ver-
4.b-	-trau-
8b-	-e,
=47	=47
4.a	Treu-
8e	-e
4.f	lenkt
8f	und
=48	=48
4.a	lei-
8a	-tet
2a}	mich.}
=49	=49
{(4f#	{Und
8g)	|
8a	im
4.b-	fer-
8b-	-nen
=50	=50
4.dd	Hei-
8a	-mat-
4.b-	-gau-
8b-	-e
=51	=51
4.cc	be-
8g	-tet
4.a	Lie-
8a	-be
=52	=52
4.a	still
8a	fu2r
2a}	dich.}
=53	=53
{4a	{Blon-
4a	-del
4.a	fol-
8a	-get
=54	=54
4a	dei-
4a	-nen
(4a	Bah-
8d)	|
8a-	-nen,
=55	=55
4g	Mar-
4g	-got
4.g	winkt
8g	dir
=56	=56
4f	sehn-
4f	-end
(qe	|
2g)}	zu,}
=57	=57
{4c	{dei-
4c	-nem
4.f	Minst'-
8f	-rel
=58	=58
4c	sagt
4c	sein
4.f	Ah-
8f	-nen:
=59	=59
4d	"su-
4d	-che
4.f	treu,
8f	so
=60	=60
4.g	fin-
8g	-dest
(qg	|
2a)}	du!"}
!! rest to measure 65
=65	=65
{4g	{Horch,
4g	da
4.a-	to2nt
8a-	es
=66	=66
(4a-	lei-
8g)	|
8f#	-se,
4an	lei-
4g	-se
=67	=67
4g	aus
4g	dem
4.a-	Burg-
8a-	-ver-
=68	=68
(4a-	-liess
8e-)	|
8f	her-
2g}	-vor,}
=69	=69
4r	.
{8g	{ei-
8g	-ne
4.g	wohl-
8bn	-be-
=70	=70
4.dd	-kann-
8bn	-te
4.g	Wei-
8g	-se
=71	=71
8r	.
4g	klingt
8bn	an
4.dd	Blon-
8cc	-dels
=72	=72
4.bn	lau-
8dd	-schend
2ff}	Ohr.}
=73	=73
{4g	{Wie
4g	ein
4.cc	Freund-
8g	-es-
=74	=74
4g	-ruf,
4g	ein
4.cc	trau-
8g	-ter,
=75	=75
4g	schallt
4g	sein
4.cc	ei-
8cc	-gen
=76	=76
4dd	Lieb
4dd	ihm
2ee}	zu,}
=77	=77
{4g	{und
4g	sein
(qg	|
4.cc)	Ah-
8g	-nen
=78	=78
4g	sagt
4g	ihm
(qg	|
4.cc)	lau-
8g	-ter:
=79	=79
4a	"Su-
4bn	-che
4.cc	treu,
8cc	so
=80	=80
4.dd	fin-
8dd	-dest
2e}	du!"}
=81	=81
{4c	{Was
4c	er
4.f	sang,
8c	das
=82	=82
4c	singt
4c	er
4.f	wie-
8c}	-der,}
=83	=83
{4d	{wie-
4d	-der
4.f	to2nt
8f	es
=84	=84
4.g	ihm
8g	zu
2a}	ru2ck,}
=85	=85
{4c	{su2-
4c	-sses
4.f	E-
8c	-cho
=86	=86
4c	klingt
4c	her-
4.f	-nie-
8c	-der,
=87	=87
4d	kei-
4d	-ne
4.f	Ta2u-
8f	-schung,
=88	=88
4g	sich'-
4g	-res
2a}	Glu2ck!}
=89	=89
{4f	{Den
4a	er
4.cc	sucht
8cc	auf
=90	=90
4d	sei-
4f	-nen
4.a	Bah-
8a	-nen,
=91	=91
4B	ach,
4d	sein
4.f	Ko2-
8f	-nig
=92	=92
4f	ruft
4e	ihm
2f}	zu,}
=93	=93
{4a	{nicht
4a	ver-
4.g	-ge-
8g	-bens
=94	=94
4f	war
4f	sein
4.e	Ah-
8e	-nen:
=95	=95
4d	"Su-
4d	-che
4.f	treu,
8f	so
=96	=96
(4g	fin-
8c)	|
8c	-dest
2a}	du!"}
!! rest to measure 101
=101	=101
{4f	{Heim-
4e	-wa2rts
4.a	fliegt
8g	er
=102	=102
4b-	mit
4a	der
(4dd	Kun-
8cc)	|
8a	-de
=103	=103
4f	da
4g	war
4.g	Lied
8g	und
=104	=104
4f	Freu-
4g	-de
2g}	gross,}
=105	=105
{4f	{fliegt
4e	zu-
4.a	-ru2ck
8g	mit
=106	=106
4b-	ed-
4a	-ler
(4dd	Run-
8cc)	|
8a	-de
=107	=107
4f	kauft
4g	den
4.a	teu-
8a	-ren
=108	=108
4f	Ko2-
4g	-nig
2f}	los.}
=109	=109
{4c	{Rings
4c	um-
4.g	-staunt
8g	vom
=110	=110
4e	fro-
4e	-hen
4.b-	Krei-
8b-	-se
=111	=111
4g	stu2rzt
4b-	der
4.dd	Held
8cc	dem
=112	=112
4b-	Sa2n-
4a	-ger
2b-}	zu;}
=113	=113
{4c	{gut
4c	be-
4.f	wa2hrt
8f	hat
=114	=114
4c	sich
4c	die
4.f	Wei-
8f	-se:
=115	=115
4d	"Su-
4d	-che
4.f	treu,
8f	so
=116	=116
2..g	fin-
8g	-dest
=117	=117
2.f}	du!"}
4r	.
==	==
*-	*-
